build/img/sprites/navigation.svg

<svg width="22" height="23" viewBox="0 0 22 23" fill="none" xmlns="http://www.w3.org/2000/svg">
	<path d="M1.60457 9.54234L16.7227 3.68363L16.7364 3.67914C16.9798 3.59154 17.2418 3.57711 17.4926 3.63748C17.7434 3.69784 17.9729 3.83059 18.1552 4.02061C18.3374 4.21064 18.4649 4.45031 18.5233 4.71237C18.5816 4.97443 18.5685 5.24835 18.4853 5.50297C18.4842 5.50788 18.4828 5.51269 18.481 5.51734L12.8727 21.3227C12.7806 21.6045 12.6059 21.8488 12.3734 22.0209C12.1409 22.1929 11.8625 22.2841 11.5776 22.2813H11.5518C11.2614 22.279 10.9793 22.1791 10.7472 21.9965C10.5151 21.8139 10.3453 21.5581 10.2628 21.267L10.2576 21.249L8.38074 14.2412L1.67762 12.279L1.66043 12.2736C1.38397 12.1847 1.14138 12.0068 0.967175 11.7654C0.792967 11.524 0.696014 11.2313 0.690113 10.929C0.684212 10.6267 0.769659 10.3301 0.934301 10.0814C1.09894 9.83281 1.33439 9.6448 1.60715 9.54414L1.60457 9.54234ZM9.12324 12.9645C9.23677 12.9978 9.34018 13.0611 9.42356 13.1483C9.50694 13.2354 9.56747 13.3435 9.59934 13.4622L11.5759 20.8438L11.5811 20.8285L17.1876 5.03129L2.07808 10.8909L2.06434 10.8963L9.12324 12.9645Z" fill="#4988D1"/>
</svg>

<svg width="22" height="23" viewBox="0 0 22 23" fill="none" xmlns="http://www.w3.org/2000/svg"><path d="M1.605 9.542l15.118-5.858.013-.005a1.33 1.33 0 011.419.342c.182.19.31.43.368.691a1.5 1.5 0 01-.042.805l-5.608 15.806a1.413 1.413 0 01-.5.698 1.31 1.31 0 01-.795.26h-.026a1.317 1.317 0 01-.805-.284 1.419 1.419 0 01-.484-.73l-.005-.018-1.877-7.008-6.703-1.962-.018-.005a1.377 1.377 0 01-.693-.509 1.485 1.485 0 01-.033-1.684c.165-.248.4-.436.673-.537l-.002-.002zm7.518 3.422a.681.681 0 01.3.184.726.726 0 01.176.314l1.977 7.382.005-.016 5.607-15.797-15.11 5.86-.014.005 7.06 2.068z" fill="#4988D1"/></svg>
